X: 42771
T: White Plains, The
R: reel
M: 4/4
K: Dmajor
"D"F2 GA dAed|"A"cAGE "D"ADD2|AFGE FDDd|"A"cAGE A4|
"D"Ad (3efg fded|"A"cAGE A3 d|"Em" E2 FG "D"AdcA|"A"ABGE "D" EDD2:|
(3FGA de fded|"A" c2 dB cAGF|A2 FE DA,A,A|"Em" GEFG "A" ABce|
"D" d2 (3efg a2 zd|"A" cAGE A2 (3cde|"D" d2 (3efg "A" aeed|"A" cAGE "D" D4:|

